X:1
T:Title
%%score { 1 | 2 }
L:1/8
M:3/4
K:A
V:1 treble nm="Grand Piano"
V:2 bass 
V:1
 z2 z2[Q:1/4=100] [A,C][B,D] | [CE]2 [CE]2 [CA][DB] | [Ec]2 [Ec]2 [DB][Ec] | %3
 [Fd][A,DF] [CEA]2 [B,EG]2 | [CEA]4[K:bass] [E,A,C][E,B,D] | [CE]2 [CE]2 [CA][DB] | %6
 [Ec]2 [Ec]2 [DB][Ec] | [Fd][A,DF] [CEA]2 [B,EG]2 |[M:2/4] [CEA]4 |[M:1/4] GA |[M:3/4] B2 B2 cB | %11
 [CA]2 [CA]2 [DB][Ec] | [Fd]3 [Ec] [DB][CA] | B4 cB | [CA]2 [CA]2 [CA][EG] | %15
[M:7/8] [DF]2 [FA]3 [FA][^EB] |[M:3/4] cA B2 G2 |[M:2/4] [CEA]4 |] %18
V:2
 z2 z2 [A,,E,][A,,E,] | [A,,A,]2 [A,,A,]2 [A,,A,][A,,A,] | [A,,A,]2 [A,,A,]2 [A,,A,][A,,A,] | %3
 [D,A,]D, E,2 E,2 | A,,4 A,,A,, | [A,,A,]2 [A,,A,]2 [A,,A,][A,,A,] | %6
 [A,,A,]2 [A,,A,]2 [A,,A,][A,,A,] | [D,A,]D, E,2 E,2 |[M:2/4] A,,4 |[M:1/4] [E,B,E][E,A,C] | %10
[M:3/4] [E,G,D]2 [E,G,D]2 [E,G,E][E,G,D] | [A,,A,]2 [A,,A,]2 [A,,A,][A,,A,] | %12
 [D,A,]3 [A,,A,] [A,,E,][A,,E,] | [E,G,E]4 [E,G,E][E,G,D] | [A,,A,]2 [A,,E,]2 [A,,A,][C,A,] | %15
[M:7/8] [D,A,]2 [D,A,]3 [D,A,][D,A,] |[M:3/4] [E,A,E][E,CE] [E,DE]2 [E,B,E]2 |[M:2/4] A,,4 |] %18

